X:1
T:Reel Acadien [1]
N:From the playing of fiddler Girard, probably not Rosaire Girard (1916-1985)
N:who was friends with Willie Ringuette.
M:C|
L:1/8
R:Reel
N:Play AAABBBAAAB'B'B'
D:Starr 15563B (78 RPM), Girard & Bernaquez (1929)
D: https://www.collectionscanada.ca/obj/m2/f7/13299.mp3
Z:Transcribed by Andrew Kuntz
K:D
[FA]-[AA][A2A2]-[AA]Ade|fded (3BdB AG|[FA]-[AA][A2A2]-[AA]Ade|[M:3/2]fgab afeg (f/g/f) d2:|
P:B
|:[M:C|]F2 AF DFAF|G2 BG DGBG|F2 AF DFAF|GBAG (3FAF D2:|
P:B'
|:{g}f2 af dfaf|(g/a/g) bg dgbg|fgaf dfaf|gbeg (f/g/f) d2:|

